X:1
T:Wol dem der in Gottes forcht
T:Georg Forster
T:Source : Trium vocum cantiones---Nürnberg---J.Petreius---1541. Editor : André Vierendeels (11/05/16)
T:Notes : Original clefs : G2, C1, C2 Editorial accidentals above the staff Square bracket indicates ligature Original note values have been halved Original text middle German 
T:Wol dem der in Gottes forcht
T:©
T:©
C:Georg Forster
Z:©
%%score [ 1 2 3 ]
L:1/8
Q:1/4=100
M:2/2
K:F
V:1 treble nm="Soprano 1" snm="S 1"
V:2 treble nm="Soprano 2" snm="S 2"
V:3 treble nm="Alto" snm="A"
V:1
 F8 | c4 c4 | A4 G4 | A4 B4 | c4 z2 c2 | A4 c4 | B4 c4 | A4 G4 | F4 z2 c2 | d4 d4 | A4 c4 | %11
w: Wol|dem der|in Got-|tes forcht|steht, und|der auff|sei- nem|we- ge|geht, dein|ar- beit|wirt er-|
w: Dein|weib wirt|in dei-|nem haus|sein, wie|ein re-|ben vol|trau- ben|sein, und|dein ne|kin- der|
 B2 A2 B4 | A4 z2 f2 | e4 d4 | c4 d4 | c2 A2 G4 | F8 |] %17
w: schies- * sen|wol, wirst|se- lig|sein und|gluc- * kes-|vol.|
w: umb _ dein|tisch, wie|die pflan-|zen ge-|sundt _ und|frisch.|
V:2
 F8 | G2 A2 G2 G2 | F4 B4 | A4 z2 G2 | A2 F2 G4 | F2 A3 GFE | F4 G2 A2- | AG F4 E2 | F2 F2 GABG | %9
w: Wol|dem der in Got-|tes forcht|steht und|der auff sei-|nen we- * * *||* * * gen|geht, dein ar- * * *|
w: Dein|weib wirt in dei-|nem haus|sein, wie|ein re- ben|vol trau- * * *||* * * ben|sein, und dei- * * *|
 A2 A2 A4 | A2 c3 B A2 | G2 A4 G2 | A2 c2 c2 B2 | c2 c2 G4 | z2 c2 BAGF | E2 F4 E2 | F8 |] %17
w: * beit wirt|er- schies _ _|sen wol, wirst|se- lig sein, wirst|se- lig sein|und _ _ _ _|_ gluc- kes-|vol.|
w: * ne kin-|der umb _ _|den tisch, wie|die pflan- zen, wie|die pflan- zen|ge- sundt _ _ _|_ _ und|frisch.|
V:3
 F8 | C4 C4 | D2 F4 E2 | F4 G4 | F4 z2 C2 | D2 F3 EDC | D4 C4 | D2 F2 C2 C2 | DEFD E2 E2 | %9
w: Wol|dem der|in Got- tes|forcht _|steht und|auff sei- * * *|* nen|we- ge geht, dein|ar- * * * * beit|
w: Dein|weib wirt|in dei- nem|haus _|sein, wie|ein re- * * *|ben vol|trau- ben sein, und|dei- * * * * ne|
 D2 D2 D3 E | F2 F2 C3 D |"^b" E2 F4 E2 | F2 F2 E2 D2 | C2 c4 B2 | c2 A2 G2 G2 | C2 F2 C4 | F8 |] %17
w: wirt er schies- *|sen wol, wirt er-|schies- * sen|wol, wirst se- lig|sein, wirst se-|* lig sein und|gluc- * kes-|vol.|
w: kin- der umb _|dein tisch, kin- *|der umb dein|tisch, wie die pflan-|ze, wie die|pflan- * * ze|ge- sundt und|frisch.|

